assets/images/ico_tel3.svg

<svg width="17" height="17" viewBox="0 0 17 17" fill="none" xmlns="http://www.w3.org/2000/svg">
<path d="M13.5629 10.2902C13.5629 10.2902 13.5622 10.2894 13.5616 10.2889C12.9081 9.64004 12.0278 9.64004 11.373 10.2889C10.9827 10.6746 10.5918 11.0616 10.1899 11.4735C10.0941 11.4221 9.99627 11.3739 9.89788 11.3262C9.75003 11.2539 9.602 11.1822 9.46393 11.0961C8.42113 10.4414 7.46321 9.56817 6.53606 8.42736C6.06652 7.84877 5.74466 7.33921 5.51888 6.80688C5.91369 6.42382 6.30084 6.03276 6.68676 5.64259C7.36837 4.95582 7.36695 4.1004 6.6832 3.41043C6.37041 3.09374 6.05318 2.77651 5.73737 2.46498L5.41426 2.14117C5.19826 1.92428 4.98191 1.70651 4.7604 1.48767C4.0923 0.83685 3.23241 0.837384 2.56947 1.48963C2.41219 1.64531 2.25615 1.80294 2.09994 1.96004C1.85796 2.20504 1.61617 2.44932 1.36992 2.68524C0.939888 3.09498 0.698449 3.61379 0.652545 4.22743C0.596499 5.00475 0.736524 5.79239 1.10589 6.78019C1.67577 8.30815 2.54421 9.75658 3.76101 11.2082C5.27228 13.0111 7.10256 14.4426 9.20132 15.4635C10.3409 16.0193 11.3197 16.3027 12.2826 16.3541C12.3504 16.358 12.4167 16.36 12.482 16.36C13.2828 16.36 13.9141 16.0896 14.4068 15.5377C14.6368 15.2816 14.8857 15.0406 15.1347 14.7995C15.2551 14.6822 15.3757 14.565 15.4957 14.4456C16.1661 13.7686 16.1694 12.8975 15.5028 12.2252L13.5629 10.2902ZM15.0224 13.9747C14.9057 14.0914 14.7879 14.2059 14.6699 14.3207C14.41 14.5723 14.1506 14.8244 13.9095 15.0929C13.5147 15.5359 13.0058 15.7209 12.3183 15.6884C11.4478 15.6414 10.55 15.3795 9.49311 14.8641C7.47957 13.8841 5.72295 12.51 4.27254 10.7794C3.10519 9.38704 2.27377 8.00249 1.73075 6.54694C1.39643 5.65308 1.26904 4.95262 1.31797 4.27636C1.35178 3.82747 1.51956 3.46452 1.8311 3.1674C2.08197 2.92703 2.32821 2.67865 2.57445 2.42975C2.72853 2.27407 2.88297 2.11768 3.03812 1.96449C3.2397 1.76647 3.45179 1.66737 3.66458 1.66737C3.87737 1.66737 4.09035 1.76647 4.293 1.96378C4.51184 2.18013 4.72695 2.39577 4.9417 2.6114L5.26748 2.93788C5.58275 3.24924 5.8975 3.56397 6.20904 3.87942C6.63587 4.31016 6.63747 4.74535 6.21259 5.17271C5.82063 5.56946 5.42814 5.96622 5.02764 6.35337C4.82819 6.54552 4.78299 6.76845 4.89046 7.03746C5.13439 7.62513 5.49255 8.20051 6.01795 8.84813C6.99242 10.0464 8.0032 10.967 9.11058 11.6623C9.26893 11.7606 9.43636 11.8434 9.60449 11.9254C9.70875 11.9763 9.8123 12.027 9.91408 12.0825C10.0991 12.1836 10.3754 12.2448 10.6478 11.9613C11.0401 11.5568 11.4414 11.16 11.8422 10.7631C12.2397 10.3683 12.6945 10.3688 13.0919 10.7624L15.0297 12.6961C15.4362 13.1062 15.4336 13.5603 15.0224 13.9747Z" fill="#ABB2BA" stroke="#ABB2BA"/>
</svg>

<svg width="17" height="17" fill="none" xmlns="http://www.w3.org/2000/svg"><path d="M13.563 10.29l-.001-.001c-.654-.649-1.534-.649-2.189 0-.39.386-.781.773-1.183 1.184a7.978 7.978 0 00-.292-.147c-.148-.072-.296-.144-.434-.23-1.043-.655-2-1.528-2.928-2.669-.47-.578-.791-1.088-1.017-1.62a80.14 80.14 0 001.168-1.164c.681-.687.68-1.543-.004-2.233-.313-.316-.63-.633-.946-.945l-.323-.324c-.216-.217-.432-.434-.654-.653-.668-.651-1.528-.65-2.19.002-.158.155-.314.313-.47.47-.242.245-.484.49-.73.725-.43.41-.672.929-.717 1.542-.057.778.084 1.565.453 2.553.57 1.528 1.438 2.977 2.655 4.428a16.444 16.444 0 005.44 4.255c1.14.556 2.119.84 3.082.891.067.004.134.006.199.006.8 0 1.432-.27 1.925-.822.23-.256.479-.497.728-.739l.36-.353c.671-.677.674-1.548.008-2.22l-1.94-1.936zm1.46 3.685l-.353.346c-.26.251-.52.503-.76.772-.395.443-.904.628-1.592.595-.87-.047-1.768-.309-2.825-.824a15.788 15.788 0 01-5.22-4.085c-1.168-1.392-2-2.777-2.542-4.232-.335-.894-.462-1.594-.413-2.27a1.64 1.64 0 01.513-1.11c.251-.24.497-.488.743-.737.155-.156.309-.312.464-.466.202-.198.414-.297.627-.297.212 0 .425.1.628.297.219.216.434.432.649.647l.325.327c.316.311.63.626.942.941.427.431.428.866.004 1.294-.392.396-.785.793-1.185 1.18-.2.193-.245.415-.138.684.244.588.603 1.164 1.128 1.811.974 1.198 1.985 2.119 3.093 2.814.158.099.325.181.493.263.105.051.208.102.31.157.185.102.461.163.734-.12.392-.405.793-.802 1.194-1.199.398-.395.852-.394 1.25 0l1.938 1.933c.406.41.404.864-.008 1.279z" fill="#ABB2BA" stroke="#ABB2BA"/></svg>
